img/quote-blue.svg

<svg width="42" height="37" fill="none" xmlns="http://www.w3.org/2000/svg"><path d="M11.4 22.8c2 0 3.55.65 4.65 1.95 1.2 1.2 1.8 2.8 1.8 4.8 0 2.2-.7 3.9-2.1 5.1-1.3 1.1-3.2 1.65-5.7 1.65a8.7 8.7 0 01-7.35-3.6C.9 30.3 0 26.9 0 22.5c0-4.2.9-8.05 2.7-11.55 1.9-3.6 4.7-7.2 8.4-10.8.1-.1.25-.15.45-.15.3 0 .55.15.75.45.2.3.2.55 0 .75-4.9 5-7.35 10.9-7.35 17.7 0 2.8.5 4.85 1.5 6.15.9-1.5 2.55-2.25 4.95-2.25zm23.4 0c2 0 3.55.65 4.65 1.95 1.2 1.2 1.8 2.8 1.8 4.8 0 2.2-.7 3.9-2.1 5.1-1.3 1.1-3.2 1.65-5.7 1.65a8.7 8.7 0 01-7.35-3.6c-1.8-2.4-2.7-5.8-2.7-10.2 0-4.2.9-8.05 2.7-11.55 1.9-3.6 4.7-7.2 8.4-10.8.1-.1.25-.15.45-.15.3 0 .55.15.75.45.2.3.2.55 0 .75-4.9 5-7.35 10.9-7.35 17.7 0 2.8.5 4.85 1.5 6.15.9-1.5 2.55-2.25 4.95-2.25z" fill="#4770A0"/></svg>

<svg width="42" height="37" viewBox="0 0 42 37" fill="none" xmlns="http://www.w3.org/2000/svg">
<path d="M11.4 22.8C13.4 22.8 14.95 23.45 16.05 24.75C17.25 25.95 17.85 27.55 17.85 29.55C17.85 31.75 17.15 33.45 15.75 34.65C14.45 35.75 12.55 36.3 10.05 36.3C6.95 36.3 4.5 35.1 2.7 32.7C0.9 30.3 0 26.9 0 22.5C0 18.3 0.9 14.45 2.7 10.95C4.6 7.35 7.4 3.75 11.1 0.149998C11.2 0.0499994 11.35 0 11.55 0C11.85 0 12.1 0.150001 12.3 0.450003C12.5 0.749999 12.5 0.999999 12.3 1.2C7.4 6.2 4.95 12.1 4.95 18.9C4.95 21.7 5.45 23.75 6.45 25.05C7.35 23.55 9 22.8 11.4 22.8ZM34.8 22.8C36.8 22.8 38.35 23.45 39.45 24.75C40.65 25.95 41.25 27.55 41.25 29.55C41.25 31.75 40.55 33.45 39.15 34.65C37.85 35.75 35.95 36.3 33.45 36.3C30.35 36.3 27.9 35.1 26.1 32.7C24.3 30.3 23.4 26.9 23.4 22.5C23.4 18.3 24.3 14.45 26.1 10.95C28 7.35 30.8 3.75 34.5 0.149998C34.6 0.0499994 34.75 0 34.95 0C35.25 0 35.5 0.150001 35.7 0.450003C35.9 0.749999 35.9 0.999999 35.7 1.2C30.8 6.2 28.35 12.1 28.35 18.9C28.35 21.7 28.85 23.75 29.85 25.05C30.75 23.55 32.4 22.8 34.8 22.8Z" fill="#4770A0"/>
</svg>
